src/xmb/monochrome/Sony - PlayStation Portable (UMD Music)-content.svg

<svg xmlns="http://www.w3.org/2000/svg" xml:space="preserve" id="svg2" x="0" y="0" version="1.1" viewBox="0 0 64 64"><style id="style881" type="text/css">.st0{fill:#fff}</style><g id="g889"><path id="path883" d="M32 10.5c-11 0-20 9-20 20s9 20 20 20 20-9 20-20-9-20-20-20m0 28c-4.4 0-8-3.6-8-8s3.6-8 8-8 8 3.6 8 8-3.6 8-8 8" class="st0"/><path id="path885" d="M32 24.5c-3.3 0-6 2.7-6 6s2.7 6 6 6 6-2.7 6-6-2.7-6-6-6m4 8.1c0 .7-.7 1.3-1.6 1.3s-1.6-.6-1.6-1.3.7-1.3 1.6-1.3c.4 0 .8.1 1.1.3v-3.4l-4.3.8v4.6c0 .7-.7 1.3-1.6 1.3s-1.6-.6-1.6-1.3.7-1.3 1.6-1.3c.4 0 .8.1 1.1.3V28l5.3-1z" class="st0"/><path id="path887" d="M32 6.5c-13.3 0-24 10.7-24 24v17c0 2 2 3 2 3 6.7 5 13 7 22 7s15.3-2 22-7c0 0 2-1.8 2-3v-17c0-13.3-10.7-24-24-24m0 46c-12.2 0-22-9.9-22-22 0-12.2 9.8-22 22-22s22 9.8 22 22c0 12.1-9.8 22-22 22" class="st0"/></g></svg>

<?xml version="1.0" encoding="UTF-8" standalone="no"?>
<!-- Generator: Adobe Illustrator 22.1.0, SVG Export Plug-In . SVG Version: 6.00 Build 0)  -->

<svg
   xmlns:dc="http://purl.org/dc/elements/1.1/"
   xmlns:cc="http://creativecommons.org/ns#"
   xmlns:rdf="http://www.w3.org/1999/02/22-rdf-syntax-ns#"
   xmlns:svg="http://www.w3.org/2000/svg"
   xmlns="http://www.w3.org/2000/svg"
   xmlns:sodipodi="http://sodipodi.sourceforge.net/DTD/sodipodi-0.dtd"
   xmlns:inkscape="http://www.inkscape.org/namespaces/inkscape"
   version="1.1"
   id="svg2"
   inkscape:export-filename="/Users/margetts/Documents/GitHub/Working/monochrome/Sony - PlayStation Portable (UMD Music)-content.png"
   inkscape:export-xdpi="360"
   inkscape:export-ydpi="360"
   inkscape:version="0.92.4 (5da689c313, 2019-01-14)"
   sodipodi:docname="Sony - PlayStation Portable (UMD Music)-content.svg"
   x="0px"
   y="0px"
   viewBox="0 0 64 64"
   style="enable-background:new 0 0 64 64;"
   xml:space="preserve"><metadata
   id="metadata896"><rdf:RDF><cc:Work
       rdf:about=""><dc:format>image/svg+xml</dc:format><dc:type
         rdf:resource="http://purl.org/dc/dcmitype/StillImage" /></cc:Work></rdf:RDF></metadata><defs
   id="defs894" /><sodipodi:namedview
   pagecolor="#ffffff"
   bordercolor="#666666"
   borderopacity="1"
   objecttolerance="10"
   gridtolerance="10"
   guidetolerance="10"
   inkscape:pageopacity="0"
   inkscape:pageshadow="2"
   inkscape:window-width="640"
   inkscape:window-height="480"
   id="namedview892"
   showgrid="false"
   inkscape:zoom="13.46875"
   inkscape:cx="20.157773"
   inkscape:cy="29.030162"
   inkscape:current-layer="svg2" />
<style
   type="text/css"
   id="style881">
	.st0{fill:#FFFFFF;}
</style>
<g
   id="g889">
	<path
   class="st0"
   d="M32,10.5c-11,0-20,9-20,20s9,20,20,20s20-9,20-20S43,10.5,32,10.5z M32,38.5c-4.4,0-8-3.6-8-8c0-4.4,3.6-8,8-8   c4.4,0,8,3.6,8,8C40,34.9,36.4,38.5,32,38.5z"
   id="path883" />
	<path
   class="st0"
   d="M32,24.5c-3.3,0-6,2.7-6,6c0,3.3,2.7,6,6,6s6-2.7,6-6C38,27.2,35.3,24.5,32,24.5z M36,32.6   c0,0.7-0.7,1.3-1.6,1.3c-0.9,0-1.6-0.6-1.6-1.3s0.7-1.3,1.6-1.3c0.4,0,0.8,0.1,1.1,0.3v-3.4L31.2,29c0,0,0,4.5,0,4.6   c0,0.7-0.7,1.3-1.6,1.3c-0.9,0-1.6-0.6-1.6-1.3c0-0.7,0.7-1.3,1.6-1.3c0.4,0,0.8,0.1,1.1,0.3v-4.6L36,27C36,27,36,32.5,36,32.6z"
   id="path885" />
	<path
   class="st0"
   d="M32,6.5c-13.3,0-24,10.7-24,24c0,1.1,0,12.3,0,17c0,2,2,3,2,3c6.7,5,13,7,22,7c9,0,15.3-2,22-7c0,0,2-1.8,2-3   c0-4.7,0-15.9,0-17C56,17.2,45.3,6.5,32,6.5z M32,52.5c-12.2,0-22-9.9-22-22c0-12.2,9.8-22,22-22s22,9.8,22,22   C54,42.6,44.2,52.5,32,52.5z"
   id="path887" />
</g>
</svg>
